X: 20772
T: WHEN PENSIVE I THOUGHT OF MY LOVE
Q: "Andante"
%R: jig
B: "Edinburgh Repository of Music" v.2 p.77 #2
F: http://digital.nls.uk/special-collections-of-printed-music/pageturner.cfm?id=87776133
Z: 2015 John Chambers <jc:trillian.mit.edu>
M: 6/8
L: 1/8
K: G
B/c/ |\
(d>e)d (dBG) | g3 z2d | e>fg (ge)a | (g3 f2)B/c/ |\
(d>ed) (dBG) | g3 z2e | f>ed (AB)^c | d3 z2d/d/ |\
(d>e)d (def) | {a}g3 z2d |
e>fg (ge)a | g3 f2d |\
b>ag (gf)e | d3 z2d | (ec').a ({g}fe).f | {a}g3 e3 |\
d3- Hd2- d//(e//d//c//) | B3 d3 | (e>f)g (g>a)f | {a}g3 z2 |]

%%sep 2 1 500
%%sep 1 1 500

